icons/vhdl.svg

<svg width="16" height="16" viewBox="0 0 16 16" fill="none" xmlns="http://www.w3.org/2000/svg">
<path fill-rule="evenodd" clip-rule="evenodd" d="M5 2.5C5 2.22386 5.22386 2 5.5 2C5.77614 2 6 2.22386 6 2.5V4H7.5V2.5C7.5 2.22386 7.72386 2 8 2C8.27614 2 8.5 2.22386 8.5 2.5V4H10V2.5C10 2.22386 10.2239 2 10.5 2C10.7761 2 11 2.22386 11 2.5V4C11.5523 4 12 4.44772 12 5H13.5C13.7761 5 14 5.22386 14 5.5C14 5.77614 13.7761 6 13.5 6H12V7.5H13.5C13.7761 7.5 14 7.72386 14 8C14 8.27614 13.7761 8.5 13.5 8.5H12V10H13.5C13.7761 10 14 10.2239 14 10.5C14 10.7761 13.7761 11 13.5 11H12C12 11.5523 11.5523 12 11 12V13.5C11 13.7761 10.7761 14 10.5 14C10.2239 14 10 13.7761 10 13.5V12H8.5V13.5C8.5 13.7761 8.27614 14 8 14C7.72386 14 7.5 13.7761 7.5 13.5V12H6V13.5C6 13.7761 5.77614 14 5.5 14C5.22386 14 5 13.7761 5 13.5V12C4.44772 12 4 11.5523 4 11H2.5C2.22386 11 2 10.7761 2 10.5C2 10.2239 2.22386 10 2.5 10H4V8.5H2.5C2.22386 8.5 2 8.27614 2 8C2 7.72386 2.22386 7.5 2.5 7.5H4V6H2.5C2.22386 6 2 5.77614 2 5.5C2 5.22386 2.22386 5 2.5 5H4C4 4.44772 4.44772 4 5 4V2.5ZM5 10.5C5 10.7761 5.22386 11 5.5 11H8H10.5C10.7761 11 11 10.7761 11 10.5V8V5.5C11 5.22386 10.7761 5 10.5 5H8H5.5C5.22386 5 5 5.22386 5 5.5V8V10.5ZM10 10V6H6V10H10Z" fill="#A1C16C"/>
</svg>

<svg xmlns="http://www.w3.org/2000/svg" width="16" height="16" fill="none"><path fill="#A1C16C" fill-rule="evenodd" d="M5 2.5a.5.5 0 0 1 1 0V4h1.5V2.5a.5.5 0 0 1 1 0V4H10V2.5a.5.5 0 0 1 1 0V4a1 1 0 0 1 1 1h1.5a.5.5 0 0 1 0 1H12v1.5h1.5a.5.5 0 0 1 0 1H12V10h1.5a.5.5 0 0 1 0 1H12a1 1 0 0 1-1 1v1.5a.5.5 0 0 1-1 0V12H8.5v1.5a.5.5 0 0 1-1 0V12H6v1.5a.5.5 0 0 1-1 0V12a1 1 0 0 1-1-1H2.5a.5.5 0 0 1 0-1H4V8.5H2.5a.5.5 0 0 1 0-1H4V6H2.5a.5.5 0 0 1 0-1H4a1 1 0 0 1 1-1V2.5Zm0 8a.5.5 0 0 0 .5.5h5a.5.5 0 0 0 .5-.5v-5a.5.5 0 0 0-.5-.5h-5a.5.5 0 0 0-.5.5v5Zm5-.5V6H6v4h4Z" clip-rule="evenodd"/></svg>
